images_sukapura_svg/cmd/sc_formatcelldialog.svg

<svg height="16" viewBox="0 0 4.2333332 4.2333335" width="16" xmlns="http://www.w3.org/2000/svg" xmlns:xlink="http://www.w3.org/1999/xlink"><linearGradient id="a" gradientUnits="userSpaceOnUse" x1="10" x2="10" y1="16" y2="-2"><stop offset="0" stop-color="#f7f7f7"/><stop offset=".22222222" stop-color="#fff"/><stop offset=".83333331" stop-color="#fff"/><stop offset="1" stop-color="#f7f7f7"/></linearGradient><linearGradient id="b" gradientTransform="matrix(1 0 0 .53846154 -6 5.307692)" gradientUnits="userSpaceOnUse" x1="12" x2="12" y1="18" y2="5"><stop offset="0" stop-color="#cfcfcf"/><stop offset=".15476191" stop-color="#e7e7e7"/><stop offset=".15476191" stop-color="#fff"/><stop offset=".5" stop-color="#f3f3f3"/><stop offset=".85714287" stop-color="#f9f9f9"/><stop offset=".85714287" stop-color="#fcfcfc"/><stop offset="1" stop-color="#fff"/></linearGradient><linearGradient id="c" gradientTransform="matrix(1 0 0 .39999999 -6 6.7)" gradientUnits="userSpaceOnUse" x1="12" x2="12" y1="12" y2="18.250002"><stop offset="0" stop-color="#f8f8f8"/><stop offset="1" stop-color="#fff"/></linearGradient><g transform="translate(0 -292.76665)"><g stroke-width=".264583"><path d="m.26458334 293.29581h3.70416656v3.175h-3.70416656z" fill="#fff"/><path d="m.13280843 293.03175c-.07310476-.0001-.13239338.0592-.13229167.13229v.92552h-.00051676v2.51354c-.00010171.0731.05918691.1324.13229167.1323h3.96874993c.073105.0001.1323932-.0592.1322916-.1323v-2.51354h.0005292v-.92552c.0001016-.0731-.059187-.13239-.1322917-.13229zm.13177491.26406h1.05833336.2645833 1.0583332.2645834 1.0583333.00103v.79375h-.0005292v2.38177h-3.70518603v-2.38177h.00051673v-.26458z" fill="#69696e"/><path d="m1.3229167 293.29581v.79375h-1.05833336v.26459h1.05833336v.79375h-1.05833336v.26458h1.05833336v1.05833h.2645833v-1.05833h1.0583332v1.05833h.2645834v-1.05833h1.0583333v-.26458h-1.0583333v-.79375h1.0583333v-.26459h-1.0583333v-.79375h-.2645834v.79375h-1.0583332v-.79375zm.2645833 1.05834h1.0583332v.79375h-1.0583332z" fill="#bababa"/><path d="m1.5875 294.35416h1.058333v.793743h-1.058333z" fill="#ff9f0a"/></g><path d="m1.5875 293.03123h1.0583332v.26458h-1.0583332z" fill="#c93400" opacity="0"/><path d="m5 5v1 3 1h1 4 1v-4-1h-1-4zm1 1h4v3h-4z" fill="#c93400" transform="matrix(.26458333 0 0 .26458333 0 292.76665)"/><path d="m1.5875 293.29581h1.058333v3.175h-1.058333z" fill="#ff9f0a" opacity="0"/></g><g transform="scale(.26458333)"><path d="m9 6v9h3v-3h4v-6z" fill="#fff" fill-opacity=".784314"/><g transform="translate(8)"><path d="m2 8h6v8h-6z" fill="url(#a)"/><path d="m2 7h6v9h-6z" fill="#626262" stroke-width=".774597"/><path d="m3 8h4v7h-4z" fill="url(#b)" stroke-width=".733799"/><path d="m4 9h2v2.5h-2z" fill="#dadada" stroke-width=".912871"/><path d="m4 11.5h2v2.5h-2z" fill="url(#c)" stroke-width=".632456"/></g></g></svg>

<?xml version="1.0" encoding="UTF-8" standalone="no"?>
<!-- Created with Inkscape (http://www.inkscape.org/) -->

<svg
   xmlns:dc="http://purl.org/dc/elements/1.1/"
   xmlns:cc="http://creativecommons.org/ns#"
   xmlns:rdf="http://www.w3.org/1999/02/22-rdf-syntax-ns#"
   xmlns:svg="http://www.w3.org/2000/svg"
   xmlns="http://www.w3.org/2000/svg"
   xmlns:sodipodi="http://sodipodi.sourceforge.net/DTD/sodipodi-0.dtd"
   xmlns:inkscape="http://www.inkscape.org/namespaces/inkscape"
   width="16"
   height="16"
   viewBox="0 0 4.2333332 4.2333335"
   version="1.1"
   id="svg1609"
   inkscape:version="0.92.3 (unknown)"
   sodipodi:docname="sc_formatcelldialog.svg">
  <defs
     id="defs1603">
    <linearGradient
       gradientTransform="translate(-1,-5)"
       id="a-2"
       gradientUnits="userSpaceOnUse"
       x1="11"
       x2="11"
       y1="21"
       y2="3">
      <stop
         offset="0"
         stop-color="#f7f7f7"
         id="stop2-2" />
      <stop
         offset=".22222222"
         stop-color="#fff"
         id="stop4-9" />
      <stop
         offset=".83333331"
         stop-color="#fff"
         id="stop6-3" />
      <stop
         offset="1"
         stop-color="#f7f7f7"
         id="stop8-6" />
    </linearGradient>
    <linearGradient
       gradientTransform="matrix(1,0,0,0.53846154,-6,5.3076923)"
       id="b"
       gradientUnits="userSpaceOnUse"
       x1="12"
       x2="12"
       y1="18"
       y2="5">
      <stop
         offset="0"
         stop-color="#cfcfcf"
         id="stop11" />
      <stop
         offset="0.15476191"
         stop-color="#e7e7e7"
         id="stop13" />
      <stop
         offset="0.15476191"
         stop-color="#fff"
         id="stop15" />
      <stop
         offset=".5"
         stop-color="#f3f3f3"
         id="stop17" />
      <stop
         offset="0.85714287"
         stop-color="#f9f9f9"
         id="stop19" />
      <stop
         offset="0.85714287"
         stop-color="#fcfcfc"
         id="stop21" />
      <stop
         offset="1"
         stop-color="#fff"
         id="stop23" />
    </linearGradient>
    <linearGradient
       gradientTransform="matrix(1,0,0,0.39999999,-6,6.6999997)"
       id="c"
       gradientUnits="userSpaceOnUse"
       x1="12"
       x2="12"
       y1="12"
       y2="18.250002">
      <stop
         offset="0"
         stop-color="#f8f8f8"
         id="stop26" />
      <stop
         offset="1"
         stop-color="#fff"
         id="stop28" />
    </linearGradient>
  </defs>
  <sodipodi:namedview
     id="base"
     pagecolor="#ffffff"
     bordercolor="#666666"
     borderopacity="1.0"
     inkscape:pageopacity="0.0"
     inkscape:pageshadow="2"
     inkscape:zoom="11.048544"
     inkscape:cx="-0.79201809"
     inkscape:cy="3.5044805"
     inkscape:document-units="mm"
     inkscape:current-layer="layer1"
     showgrid="true"
     units="px"
     inkscape:window-width="1366"
     inkscape:window-height="706"
     inkscape:window-x="0"
     inkscape:window-y="0"
     inkscape:window-maximized="1"
     showguides="false">
    <inkscape:grid
       type="xygrid"
       id="grid2157"
       spacingx="0.13229167"
       spacingy="0.13229167"
       empspacing="2" />
  </sodipodi:namedview>
  <metadata
     id="metadata1606">
    <rdf:RDF>
      <cc:Work
         rdf:about="">
        <dc:format>image/svg+xml</dc:format>
        <dc:type
           rdf:resource="http://purl.org/dc/dcmitype/StillImage" />
        <dc:title></dc:title>
      </cc:Work>
    </rdf:RDF>
  </metadata>
  <g
     inkscape:label="Layer 1"
     inkscape:groupmode="layer"
     id="layer1"
     transform="translate(0,-292.76665)">
    <g
       id="g854">
      <path
         sodipodi:nodetypes="ccccc"
         style="fill:#ffffff;stroke-width:0.26458332"
         inkscape:connector-curvature="0"
         id="path4"
         d="M 0.26458334,293.29581 H 3.9687499 v 3.175 H 0.26458334 Z" />
      <path
         id="path2"
         d="m 0.13280843,293.03175 c -0.07310476,-10e-5 -0.1323933765,0.0592 -0.13229166538,0.13229 v 0.92552 H 0 v 2.51354 c -1.0171113e-4,0.0731 0.05918691,0.1324 0.13229167,0.1323 H 4.1010416 c 0.073105,10e-5 0.1323932,-0.0592 0.1322916,-0.1323 v -2.51354 h 5.292e-4 v -0.92552 c 1.016e-4,-0.0731 -0.059187,-0.13239 -0.1322917,-0.13229 z m 0.13177491,0.26406 H 1.3229167 1.5875 h 1.0583332 0.2645834 1.0583333 0.00103 v 0.79375 h -5.292e-4 v 2.38177 H 0.26406467 v -2.38177 h 5.1673e-4 v -0.26458 z"
         style="fill:#69696e;fill-opacity:1;stroke-width:0.26458332"
         inkscape:connector-curvature="0" />
      <path
         sodipodi:nodetypes="cccccccccccccccccccccccccccccccccc"
         inkscape:connector-curvature="0"
         style="fill:#bababa;fill-opacity:1;stroke-width:0.26458332"
         id="path8"
         d="m 1.3229167,293.29581 v 0.79375 H 0.26458334 v 0.26459 H 1.3229167 v 0.79375 H 0.26458334 v 0.26458 H 1.3229167 v 1.05833 H 1.5875 v -1.05833 h 1.0583332 v 1.05833 h 0.2645834 v -1.05833 H 3.9687499 V 295.1479 H 2.9104166 v -0.79375 h 1.0583333 v -0.26459 H 2.9104166 v -0.79375 H 2.6458332 v 0.79375 H 1.5875 v -0.79375 z M 1.5875,294.35415 h 1.0583332 v 0.79375 H 1.5875 Z" />
      <rect
         y="294.35416"
         x="1.5875001"
         height="0.79374343"
         width="1.0583333"
         id="rect3720"
         style="fill:#ff9f0a;fill-opacity:1;stroke-width:0.26458332" />
      <path
         id="rect1587"
         d="m 1.5875,293.03123 h 1.0583332 v 0.26458 H 1.5875 Z"
         style="opacity:0;fill:#c93400;fill-opacity:1;stroke:none;stroke-width:0.26458332;stroke-linecap:round;stroke-linejoin:round;stroke-miterlimit:4;stroke-dasharray:none;stroke-opacity:0"
         inkscape:connector-curvature="0" />
      <path
         id="path2175"
         transform="matrix(0.26458333,0,0,0.26458333,0,292.76665)"
         d="M 5 5 L 5 6 L 5 9 L 5 10 L 6 10 L 10 10 L 11 10 L 11 6 L 11 5 L 10 5 L 6 5 L 5 5 z M 6 6 L 10 6 L 10 9 L 6 9 L 6 6 z "
         style="fill:#c93400;fill-opacity:1;stroke-width:0.99999994" />
      <rect
         y="293.29581"
         x="1.5875"
         height="3.175"
         width="1.0583333"
         id="rect2180"
         style="opacity:0;fill:#ff9f0a;fill-opacity:1;stroke:none;stroke-width:0.26458332;stroke-linecap:round;stroke-linejoin:round;stroke-miterlimit:4;stroke-dasharray:none;stroke-opacity:0" />
    </g>
    <g
       transform="matrix(0.26458333,0,0,0.26458333,3e-8,292.76665)"
       id="g1633">
      <path
         id="rect1628"
         d="m 9,6 v 9 h 3 v -3 h 4 V 6 Z"
         style="opacity:1;fill:#ffffff;fill-opacity:0.78431373;stroke:none;stroke-width:1;stroke-linecap:round;stroke-linejoin:round;stroke-miterlimit:4;stroke-dasharray:none;stroke-opacity:0"
         inkscape:connector-curvature="0"
         sodipodi:nodetypes="ccccccc" />
      <g
         transform="translate(8)"
         id="g937">
        <path
           sodipodi:nodetypes="ccccc"
           inkscape:connector-curvature="0"
           style="fill:url(#a-2)"
           d="m 2,8 h 6 v 8 H 2 Z"
           id="path31" />
        <path
           sodipodi:nodetypes="ccccc"
           inkscape:connector-curvature="0"
           style="fill:#626262;stroke-width:0.77459669"
           d="m 2,7 h 6 v 9 H 2 Z"
           id="path35" />
        <path
           sodipodi:nodetypes="ccccc"
           inkscape:connector-curvature="0"
           style="fill:url(#b);stroke-width:0.7337994"
           d="m 3,8 h 4 v 7 H 3 Z"
           id="path37" />
        <path
           sodipodi:nodetypes="ccccc"
           inkscape:connector-curvature="0"
           style="fill:#dadada;stroke-width:0.91287094"
           d="m 4,9 h 2 v 2.5 H 4 Z"
           id="path39" />
        <path
           sodipodi:nodetypes="ccccc"
           inkscape:connector-curvature="0"
           style="fill:url(#c);stroke-width:0.63245553"
           d="M 4,11.5 H 6 V 14 H 4 Z"
           id="path41" />
        <g
           transform="translate(-2,-6)"
           style="fill:#a2a2a7"
           id="g51" />
      </g>
    </g>
  </g>
</svg>
